frontend/public/svg/health/tooth.svg

<svg width="156" height="160" viewBox="0 0 156 160" fill="none" xmlns="http://www.w3.org/2000/svg">
<g clip-path="url(#clip0)">
<path d="M155.645 46.5678C154.841 61.7948 153.147 76.9313 147.954 91.4403C143.05 105.139 138.966 119.173 131.802 131.974C130.818 133.734 129.696 135.435 128.893 137.275C125.437 145.196 119.363 150.641 112.474 155.521C101.829 163.069 88.175 156.682 86.2297 145.767C85.3666 140.923 84.9301 135.998 84.407 131.099C83.6338 123.851 83.1324 116.569 82.1623 109.35C81.5894 105.812 80.6836 102.335 79.4569 98.9671C78.3858 95.7721 76.0282 95.3232 73.5669 97.6715C71.3958 99.8217 69.9407 102.589 69.4005 105.597C68.0307 112.178 67.0751 118.861 65.3969 125.358C63.7213 131.842 61.5048 138.199 59.2588 144.518C58.042 147.942 55.5794 150.617 52.8523 153.046C46.7799 158.453 37.7638 157 32.8603 151.726C23.5731 141.739 16.969 130.395 13.7727 117.056C11.2385 106.485 7.97726 96.0734 5.79163 85.4368C2.49353 69.3847 -0.0675993 53.1785 0.668155 36.688C0.898035 32.7723 1.44499 28.8816 2.30371 25.0543C4.27667 15.6779 10.4425 9.77419 18.9322 6.11905C26.3862 2.91021 33.9911 2.06281 41.854 5.00779C47.6245 7.16846 53.4751 9.1953 59.4242 10.7758C65.3889 12.3138 71.4286 13.5446 77.5194 14.4637C81.8374 15.1469 85.9448 13.8296 89.8684 11.9354C94.7135 9.59619 99.592 7.32637 104.505 5.12589C110.188 2.57077 116.188 1.37962 122.387 0.759382C134.958 -0.498159 146.239 8.9195 150.324 17.2609C153.291 23.3209 154.409 29.8154 155.072 36.4175C155.405 39.7674 155.459 43.1423 155.645 46.5678ZM8.16031 42.0107C8.17147 51.6845 9.93249 69.155 12.6084 81.542C15.0224 92.7162 17.9968 103.768 20.6649 114.888C23.463 126.501 28.9093 137.31 36.5778 146.469C39.6836 150.233 44.0311 150.717 47.276 147.134C49.207 144.972 50.7439 142.488 51.8167 139.795C55.2743 131.117 57.0843 121.982 58.6937 112.806C59.564 107.842 60.4001 102.85 62.7347 98.2839C64.5633 94.7055 66.995 91.6884 70.639 89.808C76.5382 86.7639 82.7077 88.4749 86.0452 94.189C86.9759 95.8515 87.7543 97.5954 88.3706 99.3984C90.8647 106.29 92.1387 113.459 93.0234 120.709C93.9075 127.948 94.6314 135.214 95.7617 142.413C96.7462 148.669 101.078 151.065 107.108 148.945C110.97 147.606 114.241 144.957 116.352 141.458C122.41 131.606 128.035 121.523 132.02 110.619C134.444 103.99 136.881 97.3611 139.187 90.6914C145.449 72.5765 148.622 54.0133 146.911 34.7963C146.44 29.5187 145.622 24.2202 142.776 19.6639C138.329 12.5531 132.435 7.63702 123.317 8.12008C118.596 8.30208 113.944 9.31166 109.572 11.1026C104 13.4654 98.515 16.0461 93.0713 18.6957C88.0976 21.1163 82.906 22.3142 77.4203 21.7478C73.0767 21.2988 68.6477 20.9358 64.4701 19.7688C56.1622 17.4467 47.9128 14.8417 39.805 11.8987C31.5884 8.91563 24.3968 10.9267 17.4652 15.3347C13.8256 17.6582 11.2132 21.2864 10.164 25.4751C8.67967 30.8571 8.00436 36.43 8.16031 42.0107Z" fill="black"/>
<path d="M143.839 42.0588C143.538 45.4028 143.407 48.7751 142.868 52.0804C142.572 53.8347 141.873 55.4961 140.823 56.9327C140.398 57.4117 139.877 57.7966 139.294 58.0629C138.712 58.3293 138.08 58.4713 137.439 58.4797C135.834 58.4259 135.001 56.8979 134.913 55.3627C134.834 53.4664 134.889 51.5669 135.078 49.6782C135.303 47.003 135.691 44.3416 135.949 41.671C136.701 33.8717 133.5 27.7466 127.818 22.7027C126.981 21.9597 125.914 21.4045 125.275 20.5289C124.607 19.7114 124.246 18.6862 124.254 17.6305C124.455 16.1944 125.928 15.7271 127.154 16.0238C128.78 16.3497 130.326 16.9923 131.705 17.9148C139.745 23.9085 144.402 31.663 143.839 42.0588Z" fill="black"/>
<path d="M140.772 69.8321C140.818 71.9226 140.564 73.8745 138.357 74.8932C137.703 75.2338 136.952 75.3441 136.227 75.2069C135.501 75.0697 134.844 74.6923 134.359 74.1358C132.784 72.4614 133.013 70.5023 133.83 68.5149C134.963 65.758 136.258 64.5668 137.975 64.8064C139.909 65.0755 140.715 66.5301 140.772 69.8321Z" fill="black"/>
</g>
<defs>
<clipPath id="clip0">
<rect width="155.552" height="158.834" fill="white" transform="translate(0.133789 0.289917)"/>
</clipPath>
</defs>
</svg>

<svg xmlns="http://www.w3.org/2000/svg" width="156" height="160" fill="none" viewBox="0 0 156 160"><g fill="#000" clip-path="url(#a)"><path d="M155.645 46.568c-.804 15.227-2.498 30.363-7.691 44.872-4.904 13.699-8.988 27.733-16.152 40.534-.984 1.76-2.106 3.461-2.909 5.301-3.456 7.921-9.53 13.366-16.419 18.246-10.645 7.548-24.299 1.161-26.244-9.754-.863-4.844-1.3-9.769-1.823-14.668-.773-7.248-1.275-14.53-2.245-21.749a57 57 0 0 0-2.705-10.383c-1.071-3.195-3.429-3.644-5.89-1.296a14.85 14.85 0 0 0-4.166 7.926c-1.37 6.581-2.326 13.264-4.004 19.761-1.676 6.484-3.892 12.841-6.138 19.16-1.217 3.424-3.68 6.099-6.407 8.528-6.072 5.407-15.088 3.954-19.992-1.32-9.287-9.987-15.891-21.331-19.087-34.67-2.534-10.571-5.796-20.983-7.981-31.62C2.494 69.386-.068 53.179.668 36.689a72.6 72.6 0 0 1 1.636-11.634c1.973-9.376 8.139-15.28 16.628-18.935 7.454-3.209 15.06-4.056 22.922-1.111 5.77 2.16 11.621 4.187 17.57 5.768a180 180 0 0 0 18.095 3.688c4.318.683 8.426-.634 12.35-2.529a563 563 0 0 1 14.636-6.81c5.683-2.554 11.683-3.745 17.882-4.366 12.571-1.257 23.852 8.16 27.937 16.502 2.967 6.06 4.085 12.554 4.748 19.156.333 3.35.387 6.725.573 10.15M8.16 42.01c.011 9.673 1.772 27.144 4.448 39.531 2.414 11.174 5.389 22.226 8.057 33.346a77.46 77.46 0 0 0 15.913 31.581c3.106 3.764 7.453 4.248 10.698.665a24.8 24.8 0 0 0 4.54-7.339c3.458-8.678 5.268-17.813 6.878-26.989.87-4.964 1.706-9.956 4.04-14.522 1.83-3.579 4.261-6.596 7.905-8.476 5.9-3.044 12.069-1.333 15.406 4.381a31.6 31.6 0 0 1 2.326 5.21c2.494 6.891 3.768 14.06 4.652 21.31.885 7.239 1.608 14.505 2.739 21.704.984 6.256 5.316 8.652 11.346 6.532a17.5 17.5 0 0 0 9.244-7.487c6.058-9.852 11.683-19.935 15.668-30.839 2.424-6.629 4.861-13.258 7.167-19.928 6.262-18.115 9.435-36.678 7.724-55.895-.471-5.277-1.289-10.576-4.135-15.132-4.447-7.11-10.341-12.027-19.459-11.544a40.4 40.4 0 0 0-13.745 2.983c-5.572 2.362-11.057 4.943-16.5 7.593-4.974 2.42-10.166 3.618-15.652 3.052-4.343-.45-8.772-.812-12.95-1.98-8.308-2.321-16.557-4.926-24.665-7.87-8.217-2.982-15.408-.971-22.34 3.437a16.9 16.9 0 0 0-7.301 10.14A56.3 56.3 0 0 0 8.16 42.011"/><path d="M143.839 42.059c-.301 3.344-.432 6.716-.971 10.021a11.45 11.45 0 0 1-2.045 4.853 4.6 4.6 0 0 1-3.384 1.547c-1.605-.054-2.438-1.582-2.526-3.117a40 40 0 0 1 .165-5.685c.225-2.675.613-5.336.871-8.007.752-7.8-2.449-13.924-8.131-18.968-.837-.743-1.904-1.299-2.543-2.174a4.53 4.53 0 0 1-1.021-2.898c.201-1.437 1.674-1.904 2.9-1.607 1.626.326 3.172.968 4.551 1.89 8.04 5.994 12.697 13.749 12.134 24.145m-3.067 27.773c.046 2.09-.208 4.043-2.415 5.061a3.29 3.29 0 0 1-3.998-.757c-1.575-1.675-1.346-3.634-.529-5.621 1.133-2.757 2.428-3.948 4.145-3.709 1.934.27 2.74 1.724 2.797 5.026"/></g><defs><clipPath id="a"><path fill="#fff" d="M.134.29h155.552v158.834H.134z"/></clipPath></defs></svg>
